X:40
T:Big Sciota
C:Sierra Hull
N:Transcribed by Larry Tanner
R:bluegrass
L:1/8
Q:1/4=210
M:4/4
K:G
D2 E2 F2 |: "G"GF GB "D"AG Ac | "G"BA GB AG EF | GF GB "D"AG Ac | "G"B2 [B2G2] [B2G2] DF | 
GF GA Bc d=f | "C"ed cB cd eg | "D"fe dc BA Gc |1 "G"B[BG] [BG][BG] [B2G2] DF :|2 "G"B[BG] [BG][BG] [B2G2] ef |] 
|: g2 ga ba ge | "D"fa ab a2 eg | ag ab ag ed | "C"e2 de e2 ef | ge dg ed Bd | 
"Em"e2 de e2 ef | "D"ge dc BA Gc |1 "G"B2 [BG][BG] [B2G2] ef :|2 "G"B2 [BG][BG] [B4G4] |]

